Obsidian/actions/16s/paint-none.svg

<svg viewBox="0 0 16 16" xmlns="http://www.w3.org/2000/svg"><path d="m2.7109375 2-.7070313.7070312 5.2949219 5.2949219-5.2910156 5.2910159s.7160313.702031.7070313.707031l5.2910156-5.2910156 5.2910156 5.2910156c-.009-.005.707031-.707031.707031-.707031l-5.2910154-5.2910159 5.2949214-5.2949219-.707031-.7070312-5.2949216 5.2949219z" fill="#da4453"/></svg>

<svg xmlns="http://www.w3.org/2000/svg" viewBox="0 0 16 16">
  <defs id="defs3051">
    <style type="text/css" id="current-color-scheme">
      .ColorScheme-Text {
        color:#f2f2f2;
      }
      .ColorScheme-NegativeText {
        color:#da4453;
      }
      </style>
  </defs>
  <path
     style="fill:currentColor;fill-opacity:1;stroke:none" 
     class="ColorScheme-NegativeText"
    d="M 2.7109375 2 L 2.0039062 2.7070312 L 7.2988281 8.0019531 L 2.0078125 13.292969 C 2.0078125 13.292969 2.7238438 13.995 2.7148438 14 L 8.0058594 8.7089844 L 13.296875 14 C 13.287875 13.995 14.003906 13.292969 14.003906 13.292969 L 8.7128906 8.0019531 L 14.007812 2.7070312 L 13.300781 2 L 8.0058594 7.2949219 L 2.7109375 2 z "
          />
</svg>
